X:1
T:Untitled piece
T:Untitled piece
T:BWV Anh. 131
T:Johann Sebastian Bach?
C:Johann Sebastian Bach?
%%score 1 2
L:1/8
M:4/4
K:C
V:1 treble 
V:2 bass 
V:1
 c x7 | f2 Te2[Q:1/4=144] x2 | fABc x4 | A2 Gc x4 | A2 d2 x4 | =BA/G/gf x4 | ed/c/dc/=B/ x4 | %7
 c3 x5 | E/F/ x5 :: G3 A | B3 c x4 | AG/F/dB/A/ x4 | G3 c x4 | d2 e2 x4 | (fe/d/) cB x4 | %15
 A2 G2 x4 | F3 x5 | x6 :| %18
V:2
 x8 | Te2 =f/ e/4f/4 e/4(3f/4e/4d/4e/4 z2 | z2 F,2 C2 C,2 | A,2 F,2 G,2 E,2 | F,2 F,,2 E,2 z2 | %5
 F,4 D,4 | G,4 E,2 F,2 | G,4 G,,4 | C,2 G,,2 C,,2 :: z2 x2 | z2 C,2 C,,4 | z2 C,2 C,,4 | %12
 F,4 _B,,2 B,,2 | C,2 G,,2 C,,2 A,,2 | _B,,4 G,,4 | A,,4 z2 _B,,2 | C,4 C,,4 | F,,2 C,2 F,2 :| %18

